X: 42877
T: Wildcat, The
R: hornpipe
M: 4/4
K: Gmajor
BDGB DGBd|gBdg BdgB|bagf agfe|dedc BcA^A|
BDGB DGBd|gBdg Bdgb|agfe dedc|B2A2G4:|
B4G4|Bcdc BcdB|c4A4|cBAB cedc|
B4G4|Bcdc BcdB|cdcB AcBA|G2B,2G4|
B4G4|Bcdc BcdB|c4A4|cded cedc|
B4G4|Bcdc BcdB|cdcB AcBA|G2D2G,4||

